X: 3276
T: Vejrmølledans
B:[[Notböcker/Melodier til gamle danske Almuedanse for Violin solo]]
O:Danmark
Z:Søren Bak Vestergaard
M: 3/4
L: 1/8
K: G
(!upbow!Bc)|edcBAB|d2 c2 (!upbow!AB)|dcAFAc|e2 d2 (!upbow!Bc)|\
edcBAG|g2 e2 cA|edBGAF|G2 z2:| |:[K: C]!downbow!GG|c3 edc|B3 GAB|\
cBcBce|dB G3 G|f3 agf|e3 gfe|dfBdGB|c2 z2:|
(:musicend:)
(:music:)
